public/Img/Home/quality__like.svg

<svg width="48" height="48" viewBox="0 0 48 48" fill="none" xmlns="http://www.w3.org/2000/svg">
<g clip-path="url(#clip0_262_322)">
<path d="M1 22.9247H9.43254V46.5358H1V22.9247Z" fill="#6B7CFF"/>
<path d="M36.4168 46.5357H12.8057V21.5703L17.936 13.8748L19.3611 3.89573C19.4793 3.09343 19.8812 2.36009 20.4939 1.82879C21.1066 1.29749 21.8895 1.00344 22.7004 1H22.9247C24.2662 1.00134 25.5523 1.53483 26.5009 2.48338C27.4494 3.43193 27.9829 4.71807 27.9842 6.05952V16.1786H41.4763C43.2648 16.1808 44.9794 16.8923 46.244 18.1569C47.5086 19.4215 48.2201 21.1361 48.2223 22.9246V34.7302C48.2188 37.8601 46.9738 40.8608 44.7606 43.074C42.5474 45.2872 39.5467 46.5321 36.4168 46.5357Z" fill="#6B7CFF"/>
</g>
<defs>
<clipPath id="clip0_262_322">
<rect width="48" height="48" fill="white"/>
</clipPath>
</defs>
</svg>

<svg width="48" height="48" fill="none" xmlns="http://www.w3.org/2000/svg"><g clip-path="url(#a)" fill="#6B7CFF"><path d="M1 22.925h8.433v23.61H1v-23.61ZM36.417 46.536H12.806V21.57l5.13-7.695 1.425-9.98A3.39 3.39 0 0 1 22.701 1h.224a5.065 5.065 0 0 1 5.06 5.06v10.119h13.491a6.754 6.754 0 0 1 6.746 6.746V34.73a11.819 11.819 0 0 1-11.805 11.806Z"/></g><defs><clipPath id="a"><path fill="#fff" d="M0 0h48v48H0z"/></clipPath></defs></svg>
